project/img/advantares-icon/icon-3.svg

<svg width="40" height="40" viewBox="0 0 40 40" fill="none" xmlns="http://www.w3.org/2000/svg">
<path d="M20 40C31.0457 40 40 31.0457 40 20C40 8.9543 31.0457 0 20 0C8.9543 0 0 8.9543 0 20C0 31.0457 8.9543 40 20 40Z" fill="#84DBFF"/>
<path d="M30.0832 7.61182H9.9248V29.798H30.0832V7.61182Z" fill="white"/>
<path d="M27.9128 9.8772H12.0791V11.2475H27.9128V9.8772Z" fill="#4CDBC4"/>
<path d="M27.9128 13.8059H12.0791V15.1762H27.9128V13.8059Z" fill="#4CDBC4"/>
<path d="M27.9128 17.7346H12.0791V19.1049H27.9128V17.7346Z" fill="#4CDBC4"/>
<path d="M27.9128 21.6711H12.0791V23.0414H27.9128V21.6711Z" fill="#4CDBC4"/>
<path d="M27.9128 25.6001H12.0791V26.9704H27.9128V25.6001Z" fill="#4CDBC4"/>
<path d="M26.7326 33.4414L24.9267 31.8098L23.1287 33.4414V25.5999H26.7326V33.4414Z" fill="#F1543F"/>
<path d="M28.3882 23.1444C28.1506 23.0019 28.0318 22.7088 28.0952 22.4395C28.1902 22.0514 28.0873 21.6157 27.7863 21.3147C27.4774 21.0058 27.0496 20.9028 26.6615 21.0058C26.3922 21.0692 26.0991 20.9504 25.9566 20.7127C25.7506 20.3642 25.3704 20.1345 24.9427 20.1345C24.5071 20.1345 24.1348 20.3642 23.9288 20.7127C23.7863 20.9504 23.4932 21.0692 23.2239 21.0058C22.8358 20.9108 22.4001 21.0137 22.0991 21.3147C21.7902 21.6236 21.6873 22.0514 21.7902 22.4395C21.8536 22.7088 21.7348 23.0019 21.4972 23.1444C21.1486 23.3504 20.9189 23.7306 20.9189 24.1583C20.9189 24.5939 21.1486 24.9662 21.4972 25.1722C21.7348 25.3147 21.8536 25.6078 21.7902 25.8771C21.6952 26.2652 21.7982 26.7009 22.0991 27.0019C22.4081 27.3108 22.8358 27.4137 23.2239 27.3108C23.4932 27.2474 23.7863 27.3662 23.9288 27.6038C24.1348 27.9524 24.515 28.1821 24.9427 28.1821C25.3783 28.1821 25.7506 27.9524 25.9566 27.6038C26.0991 27.3662 26.3922 27.2474 26.6615 27.3108C27.0496 27.4058 27.4853 27.3028 27.7863 27.0019C28.0873 26.7009 28.1981 26.2652 28.0952 25.8771C28.0318 25.6078 28.1506 25.3147 28.3882 25.1722C28.7368 24.9662 28.9665 24.586 28.9665 24.1583C28.9585 23.7306 28.7288 23.3504 28.3882 23.1444Z" fill="#FF7058"/>
<path d="M24.9267 26.1386C26.0204 26.1386 26.9069 25.2521 26.9069 24.1584C26.9069 23.0648 26.0204 22.1782 24.9267 22.1782C23.8331 22.1782 22.9465 23.0648 22.9465 24.1584C22.9465 25.2521 23.8331 26.1386 24.9267 26.1386Z" fill="#E6E9EE"/>
</svg>

<svg width="40" height="40" fill="none" xmlns="http://www.w3.org/2000/svg"><path d="M20 40c11.046 0 20-8.954 20-20S31.046 0 20 0 0 8.954 0 20s8.954 20 20 20z" fill="#84DBFF"/><path d="M30.083 7.612H9.925v22.186h20.158V7.612z" fill="#fff"/><path d="M27.913 9.877H12.079v1.37h15.834v-1.37zm0 3.929H12.079v1.37h15.834v-1.37zm0 3.929H12.079v1.37h15.834v-1.37zm0 3.936H12.079v1.37h15.834v-1.37zm0 3.929H12.079v1.37h15.834V25.6z" fill="#4CDBC4"/><path d="M26.733 33.441l-1.806-1.631-1.798 1.631V25.6h3.604v7.841z" fill="#F1543F"/><path d="M28.388 23.144a.656.656 0 01-.293-.704 1.196 1.196 0 00-.309-1.125 1.163 1.163 0 00-1.125-.31.656.656 0 01-.704-.292 1.178 1.178 0 00-2.028 0 .656.656 0 01-.705.293 1.196 1.196 0 00-1.125.309 1.163 1.163 0 00-.309 1.124.656.656 0 01-.293.705 1.178 1.178 0 000 2.028.656.656 0 01.293.705c-.095.388.008.824.31 1.125.308.309.736.412 1.124.309a.656.656 0 01.705.293 1.178 1.178 0 002.028 0 .656.656 0 01.704-.293c.389.095.824-.008 1.125-.31.301-.3.412-.736.31-1.124a.656.656 0 01.292-.705c.349-.206.578-.586.578-1.014a1.213 1.213 0 00-.578-1.014z" fill="#FF7058"/><path d="M24.927 26.139a1.98 1.98 0 100-3.96 1.98 1.98 0 000 3.96z" fill="#E6E9EE"/></svg>
